X:157
T:Harelquin Every Where. THO5.157
M:6/8
L:1/8
B:Thompson's Complete Collection of 200 Favourite Dances Vol.5
F:https://www.libraryofdance.org/manuals/1780c-Thompson-Compleat-5.pdf
Z:vmp. Peter Dunk 2024
Q:3/8=110
K:A
A2A BGE|ecA BGE|e2 e f2e|edc B3|
A2A BGE|ecA BGE|e2e f2e|dcB A3:|
|:c2B AAA|e2d ccc|a2g f2e|edc B3|
c2B AAA|e2d ccc|a2e f2e|dcB A3:|
W:
W:Change sides and back again ./.
W:lead down the middle, up again & cast off ./:
W:Allemand with the right & left hands :/.
W:Hands six quite round :/:

